;FLAVOR:Marlin
;TIME:27557
;Filament used: 23.1869m
;Layer height: 0.2
;MINX:54.336
;MINY:9.336
;MINZ:0.24
;MAXX:165.664
;MAXY:210.664
;MAXZ:11.09
;Generated with Cura_SteamEngine 4.12.1
M140 S50
M105
M190 S50
M104 S200
M105
M109 S200
M82 ;absolute extrusion mode
; Ender 3 Custom Start G-code
G92 E0 ; Reset Extruder
G28 ; Home all axes
G1 Z2.0 F3000 ; Move Z Axis up little to prevent scratching of Heat Bed
G1 X0.1 Y20 Z0.3 F5000.0 ; Move to start position
G1 X0.1 Y200.0 Z0.3 F1500.0 E15 ; Draw the first line
G1 X0.4 Y200.0 Z0.3 F5000.0 ; Move to side a little
G1 X0.4 Y20 Z0.3 F1500.0 E30 ; Draw the second line
G92 E0 ; Reset Extruder
G1 Z2.0 F3000 ; Move Z Axis up little to prevent scratching of Heat Bed
G1 X5 Y20 Z0.3 F5000.0 ; Move over to prevent blob squish
G92 E0
G92 E0
G1 F2700 E-5
;LAYER_COUNT:50
;LAYER:-6
M107
G0 F9000 X58.42 Y27.003 Z0.24
;TYPE:SUPPORT-INTERFACE
G1 F2700 E0
G1 F1125 X58.831 Y26.173 E0.07393
G1 X58.92 Y26.005 E0.08911
G1 X59.177 Y25.557 E0.13034
G1 X59.225 Y25.473 E0.13806
G1 X60.119 Y23.993 E0.27608
G1 X60.18 Y23.895 E0.28529
G1 X60.692 Y23.108 E0.36024
G1 X61.21 Y22.411 E0.42956
G1 X62.288 Y21.038 E0.5689
G1 X62.861 Y20.353 E0.64019
G1 X63.452 Y19.724 E0.70909
G1 X64.724 Y18.452 E0.85268
G1 X65.349 Y17.865 E0.92113
G1 X65.392 Y17.827 E0.92571
G1 X66.031 Y17.293 E0.99218
G1 X67.411 Y16.21 E1.13221
G1 X68.091 Y15.705 E1.19982
G1 X68.911 Y15.17 E1.27798
G1 X70.482 Y14.22 E1.42453
G1 X71.398 Y13.713 E1.5081
G1 X71.518 Y13.652 E1.51884
G1 X72.078 Y13.386 E1.56833
G1 X73.617 Y12.693 E1.70306
G1 X73.733 Y12.645 E1.71308
G1 X75.008 Y12.147 E1.82235
G1 X75.324 Y12.041 E1.84895
G1 X77.078 Y11.493 E1.99564
G1 X77.877 Y11.271 E2.06184
G1 X78.824 Y11.066 E2.13918
G1 X80.476 Y10.763 E2.27325
G1 X80.6 Y10.744 E2.28326
G1 X82.016 Y10.557 E2.39728
G1 X82.322 Y10.535 E2.42177
G1 X84.065 Y10.43 E2.56115
G1 X84.96 Y10.402 E2.63263
G1 X85.077 Y10.4 E2.64197
G1 X134.941 Y10.401 E6.62233
G1 X135.857 Y10.427 E6.69548
G1 X135.953 Y10.43 E6.70315
G1 X137.678 Y10.535 E6.8411
G1 X137.984 Y10.557 E6.86559
G1 X139.4 Y10.743 E6.97959
G1 X139.524 Y10.763 E6.98961
G1 X141.176 Y11.067 E7.1237
G1 X142.123 Y11.271 E7.20103
G1 X142.922 Y11.494 E7.26724
G1 X144.676 Y12.041 E7.41391
G1 X144.984 Y12.144 E7.43983
G1 X146.267 Y12.644 E7.54975
G1 X146.383 Y12.693 E7.5598
G1 X147.896 Y13.374 E7.69224
G1 X147.983 Y13.415 E7.69992
G1 X148.827 Y13.831 E7.77503
G1 X148.995 Y13.92 E7.79021
G1 X149.522 Y14.222 E7.83869
G1 X151.089 Y15.17 E7.98489
G1 X151.909 Y15.705 E8.06304
G1 X152.485 Y16.131 E8.12023
G1 X153.963 Y17.288 E8.27006
G1 X154.602 Y17.822 E8.33653
G1 X154.677 Y17.888 E8.34451
G1 X155.276 Y18.452 E8.41018
G1 X156.548 Y19.724 E8.55378
G1 X157.13 Y20.343 E8.6216
G1 X157.712 Y21.038 E8.69396
G1 X158.79 Y22.411 E8.8333
G1 X159.3 Y23.097 E8.90154
G1 X159.82 Y23.895 E8.97757
G1 X159.879 Y23.989 E8.98643
G1 X160.769 Y25.463 E9.12387
G1 X161.287 Y26.398 E9.2092
G1 X161.348 Y26.518 E9.21994
G1 X161.599 Y27.044 E9.26647
G1 X162.307 Y28.617 E9.40416
G1 X162.355 Y28.733 E9.41418
G1 X162.853 Y30.008 E9.52345
G1 X162.886 Y30.098 E9.5311
G1 X162.964 Y30.339 E9.55132
G1 X163.497 Y32.046 E9.69407
G1 X163.726 Y32.863 E9.7618
G1 X163.934 Y33.824 E9.84028
G1 X164.237 Y35.476 E9.97435
G1 X164.256 Y35.6 E9.98437
G1 X164.43 Y36.911 E10.08994
G1 X164.443 Y37.029 E10.09941
G1 X164.465 Y37.317 E10.12247
G1 X164.569 Y39.045 E10.26065
G1 X164.598 Y39.926 E10.33102
G1 X164.6 Y40.07 E10.34251
G1 X164.599 Y179.941 E21.50762
G1 X164.573 Y180.857 E21.58077
G1 X164.57 Y180.953 E21.58844
G1 X164.465 Y182.674 E21.72607
G1 X164.444 Y182.963 E21.7492
G1 X164.431 Y183.08 E21.7586
G1 X164.257 Y184.4 E21.86488
G1 X164.239 Y184.514 E21.87409
G1 X163.933 Y186.176 E22.00899
G1 X163.728 Y187.131 E22.08696
G1 X163.5 Y187.943 E22.15428
G1 X162.964 Y189.661 E22.29794
G1 X162.856 Y189.984 E22.32512
G1 X162.356 Y191.267 E22.43504
G1 X162.307 Y191.383 E22.44509
G1 X161.63 Y192.889 E22.5769
G1 X161.169 Y193.827 E22.66033
G1 X161.08 Y193.995 E22.6755
G1 X160.778 Y194.522 E22.72399
G1 X159.83 Y196.089 E22.87018
G1 X159.296 Y196.908 E22.94823
G1 X158.868 Y197.485 E23.00557
G1 X158.793 Y197.584 E23.01549
G1 X157.712 Y198.962 E23.15529
G1 X157.135 Y199.651 E23.22703
G1 X156.548 Y200.276 E23.29547
G1 X155.276 Y201.548 E23.43907
G1 X154.656 Y202.131 E23.507
G1 X153.962 Y202.712 E23.57925
G1 X152.594 Y203.785 E23.71803
G1 X151.892 Y204.307 E23.78787
G1 X151.089 Y204.83 E23.86436
G1 X149.539 Y205.768 E24.00898
G1 X148.602 Y206.287 E24.09448
G1 X148.482 Y206.348 E24.10523
G1 X147.936 Y206.608 E24.1535
G1 X146.383 Y207.307 E24.28945
G1 X146.267 Y207.355 E24.29947
G1 X144.992 Y207.853 E24.40873
G1 X144.676 Y207.959 E24.43534
G1 X142.922 Y208.507 E24.58202
G1 X142.123 Y208.729 E24.64822
G1 X141.176 Y208.934 E24.72556
G1 X139.524 Y209.237 E24.85963
G1 X139.4 Y209.256 E24.86965
G1 X137.984 Y209.443 E24.98366
G1 X137.678 Y209.465 E25.00815
G1 X135.935 Y209.57 E25.14754
G1 X135.04 Y209.598 E25.21901
G1 X134.923 Y209.6 E25.22835
G1 X85.059 Y209.599 E29.20871
G1 X84.143 Y209.573 E29.28186
G1 X84.047 Y209.57 E29.28953
G1 X82.322 Y209.465 E29.42748
G1 X82.016 Y209.443 E29.45197
G1 X80.6 Y209.257 E29.56597
G1 X80.476 Y209.237 E29.576
G1 X78.824 Y208.933 E29.71008
G1 X77.877 Y208.729 E29.78741
G1 X77.078 Y208.506 E29.85363
G1 X75.324 Y207.959 E30.00029
G1 X75.008 Y207.853 E30.0269
G1 X73.733 Y207.356 E30.13613
G1 X73.617 Y207.307 E30.14618
G1 X72.003 Y206.58 E30.28749
G1 X71.171 Y206.168 E30.3616
G1 X71.005 Y206.08 E30.37659
G1 X70.473 Y205.775 E30.42555
G1 X68.911 Y204.83 E30.57127
G1 X68.108 Y204.307 E30.64777
G1 X67.406 Y203.785 E30.7176
G1 X66.038 Y202.712 E30.85638
G1 X65.344 Y202.131 E30.92863
G1 X64.724 Y201.548 E30.99657
G1 X63.452 Y200.276 E31.14016
G1 X62.865 Y199.651 E31.20861
G1 X62.288 Y198.962 E31.28034
G1 X61.207 Y197.584 E31.42015
G1 X61.131 Y197.485 E31.43011
G1 X60.704 Y196.908 E31.48741
G1 X60.17 Y196.089 E31.56545
G1 X59.222 Y194.522 E31.71165
G1 X58.713 Y193.602 E31.79558
G1 X58.652 Y193.482 E31.80632
G1 X58.373 Y192.895 E31.8582
G1 X57.693 Y191.383 E31.99054
G1 X57.645 Y191.267 E32.00056
G1 X57.144 Y189.984 E32.11051
G1 X57.036 Y189.661 E32.1377
G1 X56.495 Y187.927 E32.28269
G1 X56.273 Y187.131 E32.34866
G1 X56.066 Y186.176 E32.42666
G1 X55.761 Y184.514 E32.56154
G1 X55.744 Y184.4 E32.57074
G1 X55.569 Y183.08 E32.67703
G1 X55.556 Y182.963 E32.68643
G1 X55.533 Y182.66 E32.71069
G1 X55.43 Y180.934 E32.84871
G1 X55.425 Y180.82 E32.85782
G1 X55.4 Y179.93 E32.92889
G1 X55.401 Y149.989 E35.31891
G1 X55.442 Y148.891 E35.40662
G1 X55.542 Y147.506 E35.51746
G1 X55.634 Y146.628 E35.58793
G1 X55.847 Y145.417 E35.68608
G1 X56.124 Y144.143 E35.79015
G1 X56.155 Y144.017 E35.80051
G1 X56.453 Y142.885 E35.89395
G1 X56.716 Y142.109 E35.95936
G1 X57.192 Y140.83 E36.06829
G1 X57.234 Y140.721 E36.07762
G1 X57.647 Y139.731 E36.16324
G1 X58.081 Y138.866 E36.2405
G1 X58.129 Y138.775 E36.24871
G1 X58.742 Y137.657 E36.35049
G1 X58.829 Y137.505 E36.36447
G1 X59.396 Y136.568 E36.45189
G1 X59.486 Y136.43 E36.46504
G1 X59.872 Y135.881 E36.51861
G1 X60.706 Y134.765 E36.62982
G1 X60.779 Y134.672 E36.63926
G1 X61.562 Y133.721 E36.73759
G1 X61.62 Y133.653 E36.74473
G1 X62.149 Y133.096 E36.80605
G1 X63.112 Y132.133 E36.91476
G1 X63.608 Y131.661 E36.96941
G1 X63.669 Y131.608 E36.97586
G1 X64.746 Y130.721 E37.08724
G1 X65.241 Y130.351 E37.13657
G1 X65.752 Y129.916 E37.19014
G1 X66.213 Y129.412 E37.24466
G1 X66.606 Y128.853 E37.29921
G1 X66.924 Y128.249 E37.3537
G1 X67.165 Y127.61 E37.40821
G1 X67.324 Y126.942 E37.46302
G1 X67.4 Y126.049 E37.53456
G1 X67.4 Y103.956 E39.29812
G1 X67.358 Y103.288 E39.35155
G1 X67.229 Y102.617 E39.40609
G1 X67.016 Y101.968 E39.46062
G1 X66.724 Y101.351 E39.51511
G1 X66.356 Y100.776 E39.5696
G1 X65.915 Y100.249 E39.62445
G1 X65.247 Y99.654 E39.69586
G1 X64.73 Y99.268 E39.74737
G1 X63.939 Y98.631 E39.82843
G1 X63.826 Y98.531 E39.84048
G1 X63.101 Y97.855 E39.91961
G1 X62.163 Y96.917 E40.0255
G1 X62.105 Y96.856 E40.03222
G1 X61.183 Y95.838 E40.14185
G1 X61.12 Y95.764 E40.14961
G1 X60.742 Y95.28 E40.19863
G1 X59.888 Y94.136 E40.31259
G1 X59.442 Y93.505 E40.37427
G1 X59.407 Y93.451 E40.37941
G1 X58.803 Y92.448 E40.47287
G1 X58.723 Y92.309 E40.48567
G1 X58.12 Y91.205 E40.58608
G1 X58.059 Y91.089 E40.59654
G1 X57.649 Y90.272 E40.66951
G1 X57.614 Y90.192 E40.67648
G1 X57.203 Y89.201 E40.76212
G1 X56.709 Y87.871 E40.87538
G1 X56.456 Y87.126 E40.93818
G1 X56.155 Y85.981 E41.03268
G1 X56.121 Y85.845 E41.04387
G1 X55.847 Y84.583 E41.14696
G1 X55.63 Y83.349 E41.24697
G1 X55.542 Y82.494 E41.31558
G1 X55.438 Y81.045 E41.43155
G1 X55.4 Y79.997 E41.51526
G1 X55.401 Y40.057 E44.70344
G1 X55.403 Y39.915 E44.71478
G1 X55.431 Y39.027 E44.7857
G1 X55.535 Y37.326 E44.92173
G1 X55.557 Y37.029 E44.9455
G1 X55.569 Y36.92 E44.95426
G1 X55.743 Y35.6 E45.06054
G1 X55.761 Y35.486 E45.06975
G1 X56.067 Y33.824 E45.20465
G1 X56.271 Y32.875 E45.28213
G1 X56.5 Y32.057 E45.34994
G1 X57.036 Y30.339 E45.4936
G1 X57.144 Y30.016 E45.52078
G1 X57.644 Y28.733 E45.6307
G1 X57.693 Y28.617 E45.64075
G1 X58.42 Y27.003 E45.78205
G0 F9000 X59.2 Y25.516
G1 F1125 X59.2 Y93.107 E51.17746
G0 F9000 X60.8 Y95.354
G1 F1125 X60.8 Y22.962 E56.9561
G0 F9000 X62.4 Y20.904
G1 F1125 X62.4 Y97.154 E63.04271
G0 F9000 X64 Y98.68
G1 F1125 X64 Y19.176 E69.38906
G0 F9000 X65.6 Y17.653
G1 F1125 X65.6 Y99.968 E75.9598
G0 F9000 X67.2 Y102.528
G1 F1125 X67.2 Y16.375 E82.83691
G0 F9000 X68.8 Y15.242
G1 F1125 X68.8 Y204.757 E97.96481
G0 F9000 X70.4 Y205.73
G1 F1125 X70.4 Y14.269 E113.24806
G0 F9000 X72 Y13.423
G1 F1125 X72 Y206.578 E128.66652
G0 F9000 X73.6 Y207.299
G1 F1125 X73.6 Y12.7 E144.20026
G0 F9000 X75.2 Y12.082
G1 F1125 X75.2 Y207.917 E159.83265
G0 F9000 X76.8 Y208.419
G1 F1125 X76.8 Y11.579 E175.54527
G0 F9000 X78.4 Y11.157
G1 F1125 X78.4 Y208.841 E191.32527
G0 F9000 X80 Y209.149
G1 F1125 X80 Y10.85 E207.15435
G0 F9000 X81.6 Y10.611
G1 F1125 X81.6 Y209.388 E223.02159
G0 F9000 X83.2 Y209.518
G1 F1125 X83.2 Y10.482 E238.9095
G0 F9000 X84.8 Y10.407
G1 F1125 X84.8 Y209.591 E254.80923
G0 F9000 X86.4 Y209.599
G1 F1125 X86.4 Y10.401 E270.71008
G0 F9000 X88 Y10.401
G1 F1125 X88 Y209.599 E286.61092
G0 F9000 X89.6 Y209.599
G1 F1125 X89.6 Y10.401 E302.51177
G0 F9000 X91.2 Y10.401
G1 F1125 X91.2 Y209.599 E318.41261
G0 F9000 X92.8 Y209.599
G1 F1125 X92.8 Y10.401 E334.31346
G0 F9000 X94.4 Y10.401
G1 F1125 X94.4 Y209.599 E350.21431
G0 F9000 X96 Y209.599
G1 F1125 X96 Y10.401 E366.11515
G0 F9000 X97.6 Y10.401
G1 F1125 X97.6 Y209.599 E382.016
G0 F9000 X99.2 Y209.599
G1 F1125 X99.2 Y10.401 E397.91684
G0 F9000 X100.8 Y10.401
G1 F1125 X100.8 Y209.599 E413.81769
G0 F9000 X102.4 Y209.599
G1 F1125 X102.4 Y10.401 E429.71853
G0 F9000 X104 Y10.401
G1 F1125 X104 Y209.599 E445.61938
G0 F9000 X105.6 Y209.599
G1 F1125 X105.6 Y10.401 E461.52023
G0 F9000 X107.2 Y10.401
G1 F1125 X107.2 Y209.599 E477.42107
G0 F9000 X108.8 Y209.599
G1 F1125 X108.8 Y10.401 E493.32192
G0 F9000 X110.4 Y10.401
G1 F1125 X110.4 Y209.599 E509.22276
G0 F9000 X112 Y209.599
G1 F1125 X112 Y10.401 E525.12361
G0 F9000 X113.6 Y10.401
G1 F1125 X113.6 Y209.599 E541.02445
G0 F9000 X115.2 Y209.599
G1 F1125 X115.2 Y10.401 E556.9253
G0 F9000 X116.8 Y10.401
G1 F1125 X116.8 Y209.599 E572.82615
G0 F9000 X118.4 Y209.599
G1 F1125 X118.4 Y10.401 E588.72699
G0 F9000 X120 Y10.401
G1 F1125 X120 Y209.599 E604.62784
G0 F9000 X121.6 Y209.599
G1 F1125 X121.6 Y10.401 E620.52868
G0 F9000 X123.2 Y10.401
G1 F1125 X123.2 Y209.599 E636.42953
G0 F9000 X124.8 Y209.599
G1 F1125 X124.8 Y10.401 E652.33037
G0 F9000 X126.4 Y10.401
G1 F1125 X126.4 Y209.599 E668.23122
G0 F9000 X128 Y209.599
G1 F1125 X128 Y10.401 E684.13207
G0 F9000 X129.6 Y10.401
G1 F1125 X129.6 Y209.599 E700.03291
G0 F9000 X131.2 Y209.599
G1 F1125 X131.2 Y10.401 E715.93376
G0 F9000 X132.8 Y10.401
G1 F1125 X132.8 Y209.599 E731.8346
G0 F9000 X134.4 Y209.599
G1 F1125 X134.4 Y10.401 E747.73545
G0 F9000 X136 Y10.433
G1 F1125 X136 Y209.567 E763.63119
G0 F9000 X137.6 Y209.47
G1 F1125 X137.6 Y10.531 E779.51136
G0 F9000 X139.2 Y10.717
G1 F1125 X139.2 Y209.283 E795.36175
G0 F9000 X140.8 Y209.003
G1 F1125 X140.8 Y10.998 E811.16737
G0 F9000 X142.4 Y11.349
G1 F1125 X142.4 Y208.653 E826.91703
G0 F9000 X144 Y208.171
G1 F1125 X144 Y11.831 E842.58974
G0 F9000 X145.6 Y12.385
G1 F1125 X145.6 Y207.616 E858.17392
G0 F9000 X147.2 Y206.94
G1 F1125 X147.2 Y13.061 E873.65018
G0 F9000 X148.8 Y13.818
G1 F1125 X148.8 Y206.178 E889.00519
G0 F9000 X150.4 Y205.247
G1 F1125 X150.4 Y14.754 E904.21116
G0 F9000 X152 Y15.773
G1 F1125 X152 Y204.227 E919.25437
G0 F9000 X153.6 Y202.996
G1 F1125 X153.6 Y17.004 E934.10106
G0 F9000 X155.2 Y18.381
G1 F1125 X155.2 Y201.62 E948.72799
G0 F9000 X156.8 Y200.008
G1 F1125 X156.8 Y19.993 E963.09756
G0 F9000 X158.4 Y21.915
G1 F1125 X158.4 Y198.085 E977.16022
G0 F9000 X160 Y195.808
G1 F1125 X160 Y24.19 E990.85951
G0 F9000 X161.6 Y27.047
G1 F1125 X161.6 Y192.951 E1004.10268
G0 F9000 X163.2 Y188.905
G1 F1125 X163.2 Y31.095 E1016.69976
G1 F2700 E1011.69976
G0 F9000 X164.216 Y30.779
G0 X163.851 Y29.636
G0 X163.282 Y28.19
G0 X162.231 Y25.906
G0 X160.72 Y23.327
G0 X159.63 Y21.758
G0 X157.877 Y19.583
G0 X155.294 Y17.014
G0 X152.472 Y14.799
G0 X149.32 Y12.887
G0 X146.659 Y11.655
G0 X144.966 Y11.015
G0 X142.373 Y10.237
G0 X139.548 Y9.689
G0 X137.75 Y9.473
G0 X134.953 Y9.336
G0 X84.014 Y9.367
G0 X81.786 Y9.513
G0 X78.617 Y10.022
G0 X76.707 Y10.494
G0 X74.636 Y11.149
G0 X73.19 Y11.718
G0 X70.906 Y12.769
G0 X68.344 Y14.27
G0 X66.758 Y15.37
G0 X64.611 Y17.097
G0 X62.023 Y19.696
G0 X59.799 Y22.529
G0 X57.887 Y25.68
G0 X56.655 Y28.341
G0 X57.6 Y28.845
G1 F2700 E1016.69976
G1 F1125 X57.6 Y90.158 E1021.59403
G1 F2700 E1016.59403
G0 F9000 X56.618 Y90.567
G0 X55.552 Y87.737
G0 X55.086 Y86.093
G0 X56 Y85.287
G1 F2700 E1021.59403
G1 F1125 X56 Y34.187 E1025.67305
G1 F2700 E1020.67305
G0 F9000 X54.952 Y33.996
G0 X54.498 Y36.924
G0 X54.336 Y40.048
G0 X54.375 Y81.091
G0 X54.585 Y83.55
G0 X55.07 Y85.976
G0 X66.27 Y126.776
G0 X67.2 Y127.462
G1 F2700 E1025.67305
G1 F1125 X67.2 Y203.623 E1031.75255
G0 F9000 X65.6 Y202.345
G1 F1125 X65.6 Y130.045 E1037.52385
G0 F9000 X64 Y131.335
G1 F1125 X64 Y200.824 E1043.07076
G0 F9000 X62.4 Y199.095
G1 F1125 X62.4 Y132.845 E1048.35912
G0 F9000 X60.8 Y134.646
G1 F1125 X60.8 Y197.037 E1053.33944
G0 F9000 X59.2 Y194.482
G1 F1125 X59.2 Y136.891 E1057.9366
G0 F9000 X57.6 Y139.843
G1 F1125 X57.6 Y191.151 E1062.03223
G1 F2700 E1057.03223
G0 F9000 X56.608 Y191.539
G0 X56.008 Y189.941
G0 X55.381 Y187.85
G0 X55.039 Y186.467
G0 X56 Y185.816
G1 F2700 E1062.03223
G1 F1125 X56 Y144.713 E1065.31325
G1 F2700 E1060.31325
G0 F300 X56 Y144.713 Z0.54
G0 F9000 X54.805 Y145.198
G0 X54.574 Y146.515
G0 X54.336 Y149.982
G0 X54.367 Y180.986
G0 X54.513 Y183.213
G0 X55.022 Y186.383
G0 X55.482 Y188.256
G0 X56.149 Y190.364
G0 X56.718 Y191.81
G0 X57.769 Y194.094
G0 X59.212 Y196.565
G0 X60.169 Y196.088
;TIME_ELAPSED:730.961966
;LAYER:-5
;TYPE:SUPPORT
G1 F2700 E1065.31325
G1 F1125 X60.704 Y196.907 E1065.41086
G1 X61.131 Y197.484 E1065.48248
G1 X61.206 Y197.583 E1065.49488
G1 X62.287 Y198.961 E1065.66963
G1 X62.864 Y199.65 E1065.75931
G1 X63.451 Y200.275 E1065.84486
G1 X64.723 Y201.547 E1066.02435
G1 X65.343 Y202.13 E1066.10927
G1 X66.037 Y202.711 E1066.19958
G1 X67.405 Y203.783 E1066.373
G1 X68.107 Y204.306 E1066.46035
G1 X68.911 Y204.829 E1066.55605
G1 X69.3 Y205.064 E1066.6014
G1 X59.933 Y195.698 E1067.92311
G1 X59.222 Y194.521 E1068.06032
G1 X58.713 Y193.6 E1068.16532
G1 X58.651 Y193.481 E1068.17871
G1 X58.373 Y192.894 E1068.24351
G1 X58.233 Y192.583 E1068.27755
G1 X72.414 Y206.764 E1070.27864
G1 X73.616 Y207.306 E1070.4102
G1 X73.732 Y207.354 E1070.42273
G1 X74.856 Y207.792 E1070.5431
G1 X57.204 Y190.141 E1073.03391
G1 X57.143 Y189.983 E1073.05081
G1 X57.109 Y189.887 E1073.06098
G1 X57.023 Y189.621 E1073.08887
G1 X56.535 Y188.057 E1073.25235
G1 X76.94 Y208.462 E1076.13171
G1 X77.078 Y208.505 E1076.14614
G1 X77.877 Y208.728 E1076.22891
G1 X78.824 Y208.931 E1076.32555
G1 X56.065 Y186.172 E1079.53709
G1 X55.761 Y184.513 E1079.70538
G1 X55.75 Y184.443 E1079.71245
G1 X80.555 Y209.249 E1083.21277
G1 X80.599 Y209.256 E1083.21722
G1 X82.015 Y209.442 E1083.35972
