;FLAVOR:Marlin
;TIME:1169
;Filament used: 0.946551m
;Layer height: 0.2
;MINX:88.937
;MINY:79.644
;MINZ:0.24
;MAXX:131.064
;MAXY:140.022
;MAXZ:7.09
;Generated with Cura_SteamEngine 4.12.1
M140 S50
M105
M190 S50
M104 S200
M105
M109 S200
M82 ;absolute extrusion mode
; Ender 3 Custom Start G-code
G92 E0 ; Reset Extruder
G28 ; Home all axes
G1 Z2.0 F3000 ; Move Z Axis up little to prevent scratching of Heat Bed
G1 X0.1 Y20 Z0.3 F5000.0 ; Move to start position
G1 X0.1 Y200.0 Z0.3 F1500.0 E15 ; Draw the first line
G1 X0.4 Y200.0 Z0.3 F5000.0 ; Move to side a little
G1 X0.4 Y20 Z0.3 F1500.0 E30 ; Draw the second line
G92 E0 ; Reset Extruder
G1 Z2.0 F3000 ; Move Z Axis up little to prevent scratching of Heat Bed
G1 X5 Y20 Z0.3 F5000.0 ; Move over to prevent blob squish
G92 E0
G92 E0
G1 F2700 E-5
;LAYER_COUNT:30
;LAYER:-6
M107
G0 F9000 X94.925 Y87.552 Z0.24
;TYPE:SUPPORT-INTERFACE
G1 F2700 E0
G1 F1125 X95.702 Y86.714 E0.09122
G1 X95.797 Y86.617 E0.10206
G1 X96.005 Y86.411 E0.12543
G1 X96.107 Y86.314 E0.13666
G1 X96.99 Y85.51 E0.23199
G1 X97.343 Y85.212 E0.26887
G1 X97.382 Y85.18 E0.27289
G1 X98.252 Y84.514 E0.36035
G1 X98.358 Y84.436 E0.37086
G1 X98.697 Y84.197 E0.40397
G1 X99.333 Y83.774 E0.46494
G1 X99.784 Y83.501 E0.50702
G1 X100.128 Y83.303 E0.53871
G1 X100.201 Y83.261 E0.54543
G1 X100.889 Y82.893 E0.60771
G1 X101.216 Y82.729 E0.63691
G1 X101.588 Y82.552 E0.6698
G1 X101.678 Y82.512 E0.67766
G1 X102.82 Y82.029 E0.77664
G1 X103.248 Y81.87 E0.81308
G1 X103.753 Y81.695 E0.85574
G1 X104.482 Y81.473 E0.91658
G1 X104.925 Y81.352 E0.95323
G1 X105.24 Y81.269 E0.97924
G1 X106.112 Y81.079 E1.05048
G1 X106.514 Y81.004 E1.08312
G1 X106.846 Y80.948 E1.10999
G1 X107.74 Y80.826 E1.18202
G1 X108.086 Y80.789 E1.2098
G1 X109.442 Y80.707 E1.31824
G1 X109.581 Y80.701 E1.32934
G1 X110.142 Y80.695 E1.37413
G1 X111.209 Y80.734 E1.45935
G1 X111.717 Y80.771 E1.50001
G1 X112.428 Y80.842 E1.55705
G1 X112.92 Y80.911 E1.59671
G1 X113.315 Y80.974 E1.62864
G1 X113.41 Y80.991 E1.63634
G1 X114.63 Y81.24 E1.73573
G1 X114.894 Y81.306 E1.75746
G1 X115.121 Y81.372 E1.77633
G1 X115.655 Y81.511 E1.82037
G1 X115.795 Y81.552 E1.83202
G1 X116.262 Y81.701 E1.87115
G1 X116.796 Y81.887 E1.91629
G1 X117.074 Y81.986 E1.93984
G1 X117.93 Y82.336 E2.01366
G1 X118.237 Y82.473 E2.0405
G1 X118.339 Y82.522 E2.04953
G1 X119.324 Y83.019 E2.1376
G1 X119.558 Y83.129 E2.15824
G1 X119.999 Y83.373 E2.19847
G1 X120.075 Y83.418 E2.20552
G1 X120.933 Y83.95 E2.28611
G1 X121.201 Y84.129 E2.31183
G1 X121.293 Y84.193 E2.32078
G1 X122.214 Y84.882 E2.41259
G1 X122.438 Y85.038 E2.43438
G1 X122.636 Y85.197 E2.45465
G1 X123.402 Y85.854 E2.53521
G1 X123.572 Y86.01 E2.55363
G1 X123.892 Y86.312 E2.58875
G1 X124.213 Y86.624 E2.62448
G1 X124.832 Y87.284 E2.69671
G1 X125.226 Y87.729 E2.74416
G1 X125.316 Y87.839 E2.7555
G1 X125.898 Y88.568 E2.82996
G1 X126.318 Y89.135 E2.88629
G1 X126.381 Y89.226 E2.89512
G1 X126.833 Y89.904 E2.96017
G1 X126.897 Y90.003 E2.96958
G1 X127.069 Y90.28 E2.99561
G1 X127.146 Y90.409 E3.0076
G1 X127.772 Y91.531 E3.11016
G1 X127.94 Y91.863 E3.13986
G1 X127.981 Y91.949 E3.14747
G1 X128.437 Y92.959 E3.23592
G1 X128.601 Y93.356 E3.27021
G1 X128.923 Y94.228 E3.34441
G1 X129.054 Y94.633 E3.37839
G1 X129.253 Y95.29 E3.43319
G1 X129.488 Y96.22 E3.50976
G1 X129.548 Y96.492 E3.53199
G1 X129.589 Y96.701 E3.54899
G1 X129.799 Y97.909 E3.64687
G1 X129.811 Y97.988 E3.65325
G1 X129.863 Y98.405 E3.68679
G1 X129.966 Y99.629 E3.78484
G1 X129.986 Y100.105 E3.82287
G1 X129.999 Y100.692 E3.86974
G1 X129.979 Y103.547 E4.09764
G1 X129.931 Y105.946 E4.28918
G1 X129.92 Y106.423 E4.32727
G1 X129.838 Y108.923 E4.52694
G1 X129.717 Y111.558 E4.73749
G1 X129.698 Y111.94 E4.76802
G1 X129.549 Y114.455 E4.96913
G1 X129.349 Y117.229 E5.19114
G1 X129.116 Y119.962 E5.41009
G1 X128.823 Y122.898 E5.64562
G1 X128.544 Y125.397 E5.84634
G1 X128.533 Y125.482 E5.85318
G1 X128.388 Y126.45 E5.93132
G1 X128.366 Y126.57 E5.94105
G1 X128.188 Y127.384 E6.00757
G1 X127.915 Y128.339 E6.08685
G1 X127.833 Y128.596 E6.10839
G1 X127.477 Y129.581 E6.19199
G1 X127.412 Y129.743 E6.20592
G1 X127.03 Y130.594 E6.28039
G1 X126.972 Y130.711 E6.29081
G1 X126.62 Y131.372 E6.35059
G1 X126.555 Y131.487 E6.36113
G1 X126.053 Y132.296 E6.43713
G1 X125.963 Y132.429 E6.44995
G1 X125.437 Y133.153 E6.52139
G1 X125.317 Y133.307 E6.53697
G1 X124.894 Y133.818 E6.58992
G1 X124.669 Y134.076 E6.61725
G1 X124.031 Y134.76 E6.69191
G1 X123.907 Y134.883 E6.70586
G1 X123.238 Y135.503 E6.77867
G1 X123.135 Y135.592 E6.78953
G1 X122.658 Y135.985 E6.83887
G1 X121.82 Y136.594 E6.92156
G1 X121.675 Y136.691 E6.93548
G1 X120.939 Y137.146 E7.00455
G1 X120.766 Y137.245 E7.02047
G1 X120.078 Y137.609 E7.0826
G1 X119.804 Y137.744 E7.10698
G1 X118.874 Y138.163 E7.1884
G1 X118.685 Y138.239 E7.20466
G1 X117.866 Y138.535 E7.27418
G1 X117.698 Y138.59 E7.28829
G1 X117.092 Y138.767 E7.33868
G1 X116.94 Y138.807 E7.35123
G1 X116.057 Y139.005 E7.42347
G1 X115.864 Y139.042 E7.43915
G1 X114.949 Y139.179 E7.51301
G1 X114.821 Y139.193 E7.52328
G1 X114.321 Y139.238 E7.56336
G1 X113.999 Y139.262 E7.58913
G1 X112.948 Y139.298 E7.67308
G1 X112.785 Y139.297 E7.68609
G1 X111.841 Y139.258 E7.76151
G1 X111.747 Y139.252 E7.76903
G1 X111.009 Y139.174 E7.82826
G1 X110.048 Y139.014 E7.90603
G1 X109.896 Y138.983 E7.91842
G1 X109.014 Y138.77 E7.99084
G1 X108.872 Y138.731 E8.0026
G1 X108.199 Y138.524 E8.0588
G1 X107.93 Y138.433 E8.08147
G1 X106.949 Y138.062 E8.16519
G1 X106.804 Y138 E8.17778
G1 X105.98 Y137.617 E8.25031
G1 X105.838 Y137.546 E8.26299
G1 X105.147 Y137.165 E8.32597
G1 X104.272 Y136.608 E8.40877
G1 X104.167 Y136.536 E8.41894
G1 X103.431 Y135.985 E8.49233
G1 X103.282 Y135.866 E8.50755
G1 X102.841 Y135.494 E8.5536
G1 X102.602 Y135.282 E8.5791
G1 X101.899 Y134.617 E8.65635
G1 X101.777 Y134.492 E8.67029
G1 X101.175 Y133.833 E8.74154
G1 X101.062 Y133.7 E8.75547
G1 X100.562 Y133.071 E8.81961
G1 X100.53 Y133.028 E8.82389
G1 X99.981 Y132.236 E8.90082
G1 X99.901 Y132.112 E8.91259
G1 X99.427 Y131.31 E8.98696
G1 X99.37 Y131.205 E8.9965
G1 X99.219 Y130.91 E9.02295
G1 X99.223 Y130.907 E9.02335
G1 X98.883 Y130.275 E9.08063
G1 X98.589 Y129.687 E9.13311
G1 X98.479 Y129.476 E9.15211
G1 X98.222 Y128.941 E9.19948
G1 X97.917 Y128.248 E9.25992
G1 X97.822 Y128.04 E9.27818
G1 X97.575 Y127.443 E9.32975
G1 X97.451 Y127.112 E9.35796
G1 X97.301 Y126.733 E9.3905
G1 X97.134 Y126.273 E9.42956
G1 X97.111 Y126.196 E9.43598
G1 X97.026 Y125.934 E9.45797
G1 X96.861 Y125.464 E9.49773
G1 X96.8 Y125.278 E9.51335
G1 X96.628 Y124.712 E9.56057
G1 X96.599 Y124.606 E9.56935
G1 X96.48 Y124.138 E9.60789
G1 X96.361 Y123.737 E9.64128
G1 X96.226 Y123.203 E9.68525
G1 X96.054 Y122.443 E9.74745
G1 X95.927 Y121.804 E9.79946
G1 X95.907 Y121.691 E9.80862
G1 X95.807 Y121.073 E9.85859
G1 X95.773 Y120.895 E9.87306
G1 X95.704 Y120.438 E9.90995
G1 X95.692 Y120.302 E9.92085
G1 X95.655 Y119.985 E9.94632
G1 X95.597 Y119.594 E9.97788
G1 X95.576 Y119.423 E9.99163
G1 X95.528 Y118.925 E10.03157
G1 X95.512 Y118.666 E10.05228
G1 X95.463 Y118.113 E10.09659
G1 X95.422 Y117.294 E10.16205
G1 X95.404 Y116.574 E10.21954
G1 X95.404 Y116.338 E10.23838
G1 X95.362 Y115.67 E10.29181
G1 X95.233 Y114.999 E10.34635
G1 X95.02 Y114.35 E10.40088
G1 X94.726 Y113.729 E10.45572
G1 X94.457 Y113.325 E10.49447
G1 X94.468 Y113.314 E10.49571
G1 X94.225 Y112.983 E10.52849
G1 X93.61 Y112.149 E10.6112
G1 X93.4 Y111.842 E10.64089
G1 X93.236 Y111.591 E10.66483
G1 X93.077 Y111.332 E10.68909
G1 X92.931 Y111.11 E10.7103
G1 X92.864 Y111.003 E10.72038
G1 X92.517 Y110.401 E10.77584
G1 X92.319 Y110.035 E10.80906
G1 X92.077 Y109.566 E10.85119
G1 X91.776 Y108.924 E10.90779
G1 X91.558 Y108.421 E10.95155
G1 X91.288 Y107.753 E11.00906
G1 X91.136 Y107.325 E11.04532
G1 X91.02 Y106.987 E11.07384
G1 X90.986 Y106.878 E11.08295
G1 X90.669 Y105.805 E11.17227
G1 X90.637 Y105.688 E11.18195
G1 X90.524 Y105.227 E11.21984
G1 X90.464 Y104.969 E11.24098
G1 X90.443 Y104.868 E11.24922
G1 X90.277 Y103.985 E11.32094
G1 X90.207 Y103.533 E11.35745
G1 X90.143 Y103.075 E11.39436
G1 X90.068 Y102.312 E11.45556
G1 X90.039 Y101.89 E11.48933
G1 X90.001 Y100.846 E11.57272
G1 X90.003 Y100.592 E11.59299
G1 X90.01 Y100.218 E11.62285
G1 X90.018 Y100.042 E11.63692
G1 X90.083 Y99.114 E11.71117
G1 X90.096 Y98.85 E11.73227
G1 X90.116 Y98.568 E11.75484
G1 X90.128 Y98.465 E11.76312
G1 X90.251 Y97.555 E11.83642
G1 X90.306 Y97.224 E11.8632
G1 X90.387 Y96.791 E11.89837
G1 X90.487 Y96.301 E11.93829
G1 X90.688 Y95.501 E12.00413
G1 X90.771 Y95.207 E12.02852
G1 X90.854 Y94.95 E12.05008
G1 X90.992 Y94.474 E12.08964
G1 X91.015 Y94.401 E12.09575
G1 X91.205 Y93.86 E12.14152
G1 X91.325 Y93.542 E12.16865
G1 X91.381 Y93.404 E12.18054
G1 X91.757 Y92.54 E12.25575
G1 X91.886 Y92.224 E12.283
G1 X92.016 Y91.95 E12.30721
G1 X92.073 Y91.837 E12.31731
G1 X92.563 Y90.904 E12.40143
G1 X92.836 Y90.432 E12.44496
G1 X93.08 Y90.029 E12.48256
G1 X93.555 Y89.315 E12.55102
G1 X93.826 Y88.933 E12.5884
G1 X93.894 Y88.843 E12.59741
G1 X94.525 Y88.032 E12.67943
G1 X94.61 Y87.926 E12.69028
G1 X94.925 Y87.552 E12.72931
G0 F9000 X94.4 Y88.192
G1 F1125 X94.4 Y113.221 E14.72723
G0 F9000 X92.8 Y110.891
G1 F1125 X92.8 Y90.494 E16.35541
G0 F9000 X91.2 Y93.874
G1 F1125 X91.2 Y107.505 E17.4435
G1 F2700 E12.4435
G0 F9000 X90.202 Y107.911
G0 X94.858 Y121.871
G0 X96 Y122.171
G1 F2700 E17.4435
G1 F1125 X96 Y86.415 E20.29769
G0 F9000 X97.6 Y85.013
G1 F1125 X97.6 Y127.503 E23.68943
G0 F9000 X99.2 Y130.864
G1 F1125 X99.2 Y83.862 E27.44133
G0 F9000 X100.8 Y82.94
G1 F1125 X100.8 Y133.37 E31.46687
G0 F9000 X102.4 Y135.09
G1 F1125 X102.4 Y82.206 E35.6883
G0 F9000 X104 Y81.619
G1 F1125 X104 Y136.41 E40.06196
G0 F9000 X105.6 Y137.414
G1 F1125 X105.6 Y81.19 E44.55
G0 F9000 X107.2 Y80.899
G1 F1125 X107.2 Y138.156 E49.1205
G0 F9000 X108.8 Y138.708
G1 F1125 X108.8 Y80.745 E53.74736
G0 F9000 X110.4 Y80.705
G1 F1125 X110.4 Y139.072 E58.40647
G0 F9000 X112 Y139.264
G1 F1125 X112 Y80.8 E63.07332
G0 F9000 X113.6 Y81.03
G1 F1125 X113.6 Y139.276 E67.72276
G0 F9000 X115.2 Y139.142
G1 F1125 X115.2 Y81.393 E72.33254
G0 F9000 X116.8 Y81.889
G1 F1125 X116.8 Y138.839 E76.87853
G0 F9000 X118.4 Y138.343
G1 F1125 X118.4 Y82.553 E81.33193
G0 F9000 X120 Y83.374
G1 F1125 X120 Y137.648 E85.66432
G0 F9000 X121.6 Y136.738
G1 F1125 X121.6 Y84.423 E89.84033
G0 F9000 X123.2 Y85.681
G1 F1125 X123.2 Y135.536 E93.81997
G0 F9000 X124.8 Y133.926
G1 F1125 X124.8 Y87.25 E97.54585
G0 F9000 X126.4 Y89.255
G1 F1125 X126.4 Y131.737 E100.93695
G0 F9000 X128 Y128.042
G1 F1125 X128 Y91.992 E103.81461
G1 F2700 E98.81461
G0 F9000 X128.971 Y91.553
G0 X129.809 Y93.524
G0 X130.526 Y95.983
G0 X129.6 Y96.765
G1 F2700 E103.81461
G1 F1125 X129.6 Y113.595 E105.15806
G1 F2700 E100.15806
G0 F300 X129.6 Y113.595 Z0.54
G0 F9000 X130.611 Y114.532
G0 X129.984 Y122.14
G0 X129.409 Y126.785
G0 X128.843 Y128.929
G0 X128.388 Y130.167
G0 X127.64 Y131.686
G0 X126.957 Y132.857
G0 X126.053 Y132.295
;TIME_ELAPSED:79.999625
;LAYER:-5
;TYPE:SUPPORT
G1 F2700 E105.15806
G1 F1125 X126.277 Y131.934 E105.20045
G1 X90.518 Y96.175 E110.24643
G1 X90.687 Y95.5 E110.31586
G1 X90.771 Y95.206 E110.34637
G1 X90.817 Y95.06 E110.36164
G1 X126.796 Y131.039 E115.43867
G1 X126.972 Y130.71 E115.4759
G1 X127.029 Y130.593 E115.48888
G1 X127.258 Y130.086 E115.54439
G1 X91.159 Y93.987 E120.63835
G1 X91.204 Y93.859 E120.65189
G1 X91.324 Y93.541 E120.6858
G1 X91.38 Y93.403 E120.70067
G1 X91.564 Y92.978 E120.74688
G1 X127.66 Y129.074 E125.84041
G1 X127.832 Y128.595 E125.89119
G1 X127.914 Y128.337 E125.91821
G1 X128.008 Y128.008 E125.95235
G1 X91.993 Y91.993 E131.03445
G1 X92.015 Y91.95 E131.03927
G1 X92.072 Y91.837 E131.0519
G1 X92.477 Y91.063 E131.13906
G1 X128.296 Y126.882 E136.19351
G1 X128.364 Y126.569 E136.22547
G1 X128.387 Y126.449 E136.23766
G1 X128.503 Y125.675 E136.31576
G1 X92.995 Y90.166 E141.32639
G1 X93.079 Y90.028 E141.34251
G1 X93.554 Y89.314 E141.42808
G0 F9000 X93.555 Y89.312
G1 F1125 X128.653 Y124.411 E146.38086
G1 X128.795 Y123.139 E146.50856
G1 X94.158 Y88.501 E151.39629
G1 X94.524 Y88.031 E151.45573
G1 X94.609 Y87.925 E151.46929
G1 X94.786 Y87.715 E151.49669
G1 X128.926 Y121.855 E156.31421
G1 X129.055 Y120.57 E156.44308
G1 X95.459 Y86.974 E161.18383
G1 X95.701 Y86.713 E161.21935
G1 X95.796 Y86.617 E161.23282
G1 X96.003 Y86.411 E161.26196
G1 X96.106 Y86.314 E161.27608
G1 X96.162 Y86.263 E161.28364
G1 X129.174 Y119.274 E165.94192
G1 X129.285 Y117.972 E166.0723
G1 X96.902 Y85.588 E170.64197
G1 X96.988 Y85.509 E170.65362
G1 X97.341 Y85.212 E170.69965
G1 X97.381 Y85.179 E170.70482
G1 X97.679 Y84.951 E170.74226
G1 X129.389 Y116.661 E175.21689
G1 X129.484 Y115.342 E175.34884
G1 X98.487 Y84.345 E179.72285
G1 X98.696 Y84.196 E179.74846
G1 X99.331 Y83.775 E179.82448
G1 X129.574 Y114.018 E184.09209
G1 X129.652 Y112.682 E184.22563
G1 X100.221 Y83.25 E188.37873
G1 X100.888 Y82.892 E188.45426
G1 X100.998 Y82.834 E188.46667
G1 X101.147 Y82.762 E188.48318
G1 X129.725 Y111.34 E192.51585
G1 X129.788 Y109.989 E192.6508
G1 X102.122 Y82.323 E196.55477
G1 X102.818 Y82.028 E196.6302
G1 X103.127 Y81.914 E196.66306
G1 X129.847 Y108.634 E200.43354
G1 X129.891 Y107.264 E200.57031
G1 X104.19 Y81.562 E204.19707
G1 X104.481 Y81.473 E204.22744
G1 X104.924 Y81.351 E204.27328
G1 X105.239 Y81.268 E204.30579
G1 X105.298 Y81.256 E204.31179
G1 X129.931 Y105.889 E207.78778
G1 X129.959 Y104.503 E207.9261
G1 X106.468 Y81.012 E211.24093
G1 X106.513 Y81.004 E211.2455
G1 X106.845 Y80.948 E211.27909
G1 X107.701 Y80.831 E211.3653
G1 X129.981 Y103.111 E214.50925
G1 X129.991 Y101.707 E214.64934
G1 X109.017 Y80.733 E217.609
G1 X109.441 Y80.707 E217.65138
G1 X109.58 Y80.7 E217.66527
G1 X110.141 Y80.695 E217.72125
G1 X110.403 Y80.704 E217.74741
G1 X129.99 Y100.291 E220.51135
G1 X129.985 Y100.104 E220.53001
G1 X129.965 Y99.629 E220.57745
G1 X129.894 Y98.781 E220.66236
G1 X111.902 Y80.789 E223.20122
G1 X112.427 Y80.842 E223.25388
G1 X112.919 Y80.911 E223.30345
G1 X113.314 Y80.974 E223.34336
G1 X113.409 Y80.991 E223.35299
G1 X113.546 Y81.019 E223.36694
G1 X129.664 Y97.137 E225.64137
G1 X129.588 Y96.701 E225.68553
G1 X129.556 Y96.555 E225.70044
G1 X129.547 Y96.491 E225.70689
G1 X129.487 Y96.219 E225.73468
G1 X129.259 Y95.318 E225.82742
G1 X115.381 Y81.44 E227.78575
G1 X115.654 Y81.511 E227.8139
G1 X115.794 Y81.552 E227.82845
G1 X116.261 Y81.7 E227.87734
G1 X116.795 Y81.887 E227.93379
G1 X117.072 Y81.986 E227.96314
G1 X117.527 Y82.172 E228.01219
G1 X128.521 Y93.166 E229.56356
G1 X128.436 Y92.959 E229.58589
G1 X127.979 Y91.948 E229.6966
G1 X127.939 Y91.863 E229.70597
G1 X127.771 Y91.53 E229.74319
G1 X127.144 Y90.409 E229.87135
G1 X127.095 Y90.325 E229.88105
G1 X120.372 Y83.603 E230.82967
G1 X120.932 Y83.95 E230.8954
G1 X121.2 Y84.129 E230.92756
G1 X121.292 Y84.193 E230.93874
G1 X122.212 Y84.881 E231.05337
G1 X122.436 Y85.038 E231.08066
G1 X122.635 Y85.197 E231.10608
G1 X123.401 Y85.854 E231.20677
G1 X123.487 Y85.931 E231.21829
G1 X123.891 Y86.311 E231.27363
G1 X124.212 Y86.624 E231.31837
G1 X124.831 Y87.283 E231.40858
G1 X125.225 Y87.728 E231.46789
G1 X125.315 Y87.838 E231.48207
G1 X125.897 Y88.567 E231.57515
G1 X126.317 Y89.135 E231.64563
G1 X126.38 Y89.226 E231.65668
G1 X126.832 Y89.904 E231.73798
G1 X126.895 Y90.003 E231.74969
G1 X127.067 Y90.279 E231.78214
G1 F2700 E226.78214
G0 F9000 X128.071 Y89.882
G0 X128.949 Y91.504
G0 X129.809 Y93.524
G0 X130.526 Y95.983
G0 X130.927 Y98.349
G0 X131.064 Y100.796
G0 X130.955 Y106.999
G0 X130.76 Y112
G0 X130.175 Y120.061
G0 X129.871 Y123.107
G0 X129.409 Y126.785
G0 X128.843 Y128.929
G0 X128.388 Y130.167
G0 X127.64 Y131.686
G0 X126.957 Y132.857
G0 X126.053 Y132.295
G1 F2700 E231.78214
G1 F1125 X125.962 Y132.428 E231.79822
G1 X125.708 Y132.779 E231.84145
G1 X90.283 Y97.354 E236.8403
G1 X90.279 Y97.379 E236.84283
G1 X90.25 Y97.553 E236.86043
G1 X90.127 Y98.464 E236.95216
G1 X90.113 Y98.598 E236.9656
G1 X125.092 Y133.578 E241.90158
G1 X124.894 Y133.817 E241.93255
G1 X124.669 Y134.075 E241.96671
G1 X124.43 Y134.33 E242.00158
G1 X90.025 Y99.924 E246.85657
G1 X90.017 Y100.041 E246.86827
G1 X90.009 Y100.217 E246.88585
G1 X90.003 Y100.591 E246.92317
G1 X90.001 Y100.845 E246.94852
G1 X90.018 Y101.332 E246.99714
G1 X123.73 Y135.044 E251.75427
