;FLAVOR:Marlin
;TIME:10331
;Filament used: 7.30365m
;Layer height: 0.2
;MINX:71.48
;MINY:64.341
;MINZ:0.24
;MAXX:163.257
;MAXY:155.659
;MAXZ:27.09
;Generated with Cura_SteamEngine 4.12.1
M140 S50
M105
M190 S50
M104 S200
M105
M109 S200
M82 ;absolute extrusion mode
; Ender 3 Custom Start G-code
G92 E0 ; Reset Extruder
G28 ; Home all axes
G1 Z2.0 F3000 ; Move Z Axis up little to prevent scratching of Heat Bed
G1 X0.1 Y20 Z0.3 F5000.0 ; Move to start position
G1 X0.1 Y200.0 Z0.3 F1500.0 E15 ; Draw the first line
G1 X0.4 Y200.0 Z0.3 F5000.0 ; Move to side a little
G1 X0.4 Y20 Z0.3 F1500.0 E30 ; Draw the second line
G92 E0 ; Reset Extruder
G1 Z2.0 F3000 ; Move Z Axis up little to prevent scratching of Heat Bed
G1 X5 Y20 Z0.3 F5000.0 ; Move over to prevent blob squish
G92 E0
G92 E0
G1 F2700 E-5
;LAYER_COUNT:326
;LAYER:-6
M107
G0 F9000 X76.317 Y70.326 Z0.24
;TYPE:SUPPORT-INTERFACE
G1 F2700 E0
G1 F1125 X76.799 Y69.814 E0.05613
G1 X76.956 Y69.658 E0.0738
G1 X77.652 Y69.012 E0.1496
G1 X77.791 Y68.893 E0.16421
G1 X78.482 Y68.339 E0.2349
G1 X78.621 Y68.235 E0.24876
G1 X79.336 Y67.743 E0.31804
G1 X79.52 Y67.626 E0.33545
G1 X80.276 Y67.183 E0.40539
G1 X80.418 Y67.106 E0.41829
G1 X81.25 Y66.697 E0.49229
G1 X81.363 Y66.647 E0.50215
G1 X82.218 Y66.302 E0.57575
G1 X82.385 Y66.242 E0.58992
G1 X83.224 Y65.973 E0.66025
G1 X83.388 Y65.927 E0.67384
G1 X84.26 Y65.715 E0.74548
G1 X84.422 Y65.682 E0.75867
G1 X85.315 Y65.534 E0.83093
G1 X85.492 Y65.511 E0.84518
G1 X86.386 Y65.428 E0.91685
G1 X86.528 Y65.421 E0.9282
G1 X87.269 Y65.4 E0.98737
G1 X89.147 Y65.4 E1.13728
G1 X89.536 Y65.405 E1.16833
G1 X91.288 Y65.452 E1.30824
G1 X91.605 Y65.472 E1.33359
G1 X92.297 Y65.501 E1.38888
G1 X94.063 Y65.644 E1.53031
G1 X94.978 Y65.739 E1.60374
G1 X96.859 Y65.992 E1.75524
G1 X97.328 Y66.062 E1.7931
G1 X97.689 Y66.127 E1.82238
G1 X99.685 Y66.505 E1.98454
G1 X100.287 Y66.64 E2.03378
G1 X102.082 Y67.079 E2.18129
G1 X102.206 Y67.111 E2.19151
G1 X102.478 Y67.188 E2.21408
G1 X103.02 Y67.335 E2.25891
G1 X104.697 Y67.843 E2.39878
G1 X104.803 Y67.878 E2.40769
G1 X105.344 Y68.067 E2.45344
G1 X105.679 Y68.171 E2.48144
G1 X107.344 Y68.774 E2.62279
G1 X107.789 Y68.944 E2.66082
G1 X108.04 Y69.047 E2.68247
G1 X109.67 Y69.734 E2.82367
G1 X109.853 Y69.821 E2.83985
G1 X110.564 Y70.136 E2.90192
G1 X112.243 Y70.954 E3.05101
G1 X112.846 Y71.28 E3.10573
G1 X113.154 Y71.434 E3.13321
G1 X114.661 Y72.271 E3.27082
G1 X115.089 Y72.52 E3.31034
G1 X115.318 Y72.659 E3.33173
G1 X116.795 Y73.583 E3.4708
G1 X117.007 Y73.729 E3.49135
G1 X117.65 Y74.147 E3.55256
G1 X119.126 Y75.185 E3.6966
G1 X119.258 Y75.28 E3.70959
G1 X119.883 Y75.747 E3.77186
G1 X121.028 Y76.649 E3.88822
G1 X121.579 Y77.029 E3.94165
G1 X122.186 Y77.344 E3.99624
G1 X122.827 Y77.578 E4.05071
G1 X123.496 Y77.731 E4.10549
G1 X124.345 Y77.8 E4.17348
G1 X143.605 Y77.801 E5.7109
G1 X144.606 Y77.837 E5.79085
G1 X144.729 Y77.846 E5.8007
G1 X145.646 Y77.948 E5.87435
G1 X145.821 Y77.973 E5.88846
G1 X146.71 Y78.137 E5.96062
G1 X146.833 Y78.165 E5.97069
G1 X147.714 Y78.395 E6.04337
G1 X147.886 Y78.448 E6.05774
G1 X149.196 Y78.914 E6.16873
G1 X149.253 Y78.938 E6.17366
G1 X150.098 Y79.322 E6.24775
G1 X150.271 Y79.409 E6.26321
G1 X151.058 Y79.839 E6.3348
G1 X151.203 Y79.925 E6.34826
G1 X151.945 Y80.403 E6.41871
G1 X152.095 Y80.507 E6.43328
G1 X152.803 Y81.04 E6.50402
G1 X152.947 Y81.158 E6.51888
G1 X154.03 Y82.137 E6.63542
G1 X155.238 Y83.347 E6.7719
G1 X155.331 Y83.447 E6.7828
G1 X155.576 Y83.693 E6.81052
G1 X155.783 Y83.889 E6.83327
G1 X156.182 Y84.289 E6.87837
G1 X156.284 Y84.401 E6.89046
G1 X156.537 Y84.656 E6.91914
G1 X156.723 Y84.83 E6.93947
G1 X157.956 Y86.064 E7.07872
G1 X158.602 Y86.76 E7.15452
G1 X158.721 Y86.899 E7.16913
G1 X159.275 Y87.59 E7.23982
G1 X159.379 Y87.729 E7.25368
G1 X159.871 Y88.444 E7.32296
G1 X159.988 Y88.628 E7.34037
G1 X160.416 Y89.358 E7.40792
G1 X160.509 Y89.533 E7.42373
G1 X161.127 Y90.841 E7.53921
G1 X161.169 Y90.948 E7.54839
G1 X161.483 Y91.799 E7.6208
G1 X161.538 Y91.967 E7.63491
G1 X161.787 Y92.828 E7.70645
G1 X161.831 Y93.005 E7.72101
G1 X162.011 Y93.862 E7.79091
G1 X162.043 Y94.044 E7.80566
G1 X162.158 Y94.893 E7.87405
G1 X162.178 Y95.114 E7.89177
G1 X162.24 Y96.372 E7.99231
G1 X162.244 Y96.523 E8.00436
G1 X162.244 Y123.544 E10.1613
G1 X162.208 Y124.55 E10.24165
G1 X162.198 Y124.685 E10.25246
G1 X162.096 Y125.602 E10.32611
G1 X162.071 Y125.777 E10.34022
G1 X161.909 Y126.655 E10.41149
G1 X161.879 Y126.789 E10.42245
G1 X161.649 Y127.67 E10.49513
G1 X161.596 Y127.842 E10.5095
G1 X161.13 Y129.152 E10.62049
G1 X161.106 Y129.209 E10.62542
G1 X160.722 Y130.054 E10.69951
G1 X160.635 Y130.227 E10.71497
G1 X160.212 Y131.002 E10.78545
G1 X160.123 Y131.153 E10.79944
G1 X159.641 Y131.901 E10.87047
G1 X159.537 Y132.051 E10.88504
G1 X159.004 Y132.759 E10.95578
G1 X158.891 Y132.897 E10.97002
G1 X157.907 Y133.986 E11.08718
G1 X156.701 Y135.191 E11.22327
G1 X156.545 Y135.336 E11.24027
G1 X156.208 Y135.677 E11.27854
G1 X156.103 Y135.791 E11.29091
G1 X155.813 Y136.081 E11.32365
G1 X155.675 Y136.211 E11.33878
G1 X155.437 Y136.445 E11.36543
G1 X155.21 Y136.683 E11.39168
G1 X153.98 Y137.912 E11.53048
G1 X153.284 Y138.558 E11.60628
G1 X153.145 Y138.677 E11.62088
G1 X152.454 Y139.231 E11.69158
G1 X152.315 Y139.335 E11.70544
G1 X151.6 Y139.827 E11.77472
G1 X151.416 Y139.944 E11.79212
G1 X150.686 Y140.372 E11.85967
G1 X150.503 Y140.469 E11.87621
G1 X149.203 Y141.083 E11.99097
G1 X149.1 Y141.124 E11.99982
G1 X148.245 Y141.439 E12.07255
G1 X148.071 Y141.496 E12.08717
G1 X147.208 Y141.745 E12.15887
G1 X147.027 Y141.79 E12.17376
G1 X146.182 Y141.967 E12.24267
G1 X145.989 Y142.001 E12.25831
G1 X145.144 Y142.115 E12.32638
G1 X144.93 Y142.134 E12.34353
G1 X143.662 Y142.196 E12.44487
G1 X143.511 Y142.2 E12.45692
G1 X124.347 Y142.2 E13.98668
G1 X123.679 Y142.242 E14.0401
G1 X123.008 Y142.371 E14.09465
G1 X122.359 Y142.584 E14.14917
G1 X121.739 Y142.878 E14.20395
G1 X121.033 Y143.346 E14.27156
G1 X119.786 Y144.327 E14.39821
G1 X119.174 Y144.771 E14.45856
G1 X119.048 Y144.871 E14.47141
G1 X117.572 Y145.907 E14.61535
G1 X116.975 Y146.293 E14.6721
G1 X116.816 Y146.402 E14.68749
G1 X115.313 Y147.344 E14.82908
G1 X115.073 Y147.491 E14.85155
G1 X114.635 Y147.744 E14.89192
G1 X113.112 Y148.589 E15.03095
G1 X113.03 Y148.628 E15.0382
G1 X112.769 Y148.761 E15.06159
G1 X112.317 Y149.007 E15.10266
G1 X112.209 Y149.062 E15.11234
G1 X110.573 Y149.858 E15.25757
G1 X110.474 Y149.904 E15.26628
G1 X109.786 Y150.209 E15.32636
G1 X109.677 Y150.262 E15.33603
G1 X108.035 Y150.955 E15.4783
G1 X107.781 Y151.059 E15.50021
G1 X107.317 Y151.236 E15.53985
G1 X105.663 Y151.835 E15.68027
G1 X105.57 Y151.861 E15.68798
G1 X105.31 Y151.945 E15.70979
G1 X104.779 Y152.132 E15.75473
G1 X103.105 Y152.638 E15.89432
G1 X102.128 Y152.91 E15.97528
G1 X100.275 Y153.362 E16.12753
G1 X99.665 Y153.498 E16.17742
G1 X97.671 Y153.876 E16.33942
G1 X97.305 Y153.94 E16.36908
G1 X96.805 Y154.016 E16.40945
G1 X94.991 Y154.259 E16.55555
G1 X94.3 Y154.327 E16.61097
G1 X94.06 Y154.356 E16.63027
G1 X92.325 Y154.496 E16.76922
G1 X92.191 Y154.504 E16.77993
G1 X91.552 Y154.53 E16.83098
G1 X91.274 Y154.549 E16.85322
G1 X89.512 Y154.595 E16.99392
G1 X89.138 Y154.6 E17.02378
G1 X87.258 Y154.599 E17.17385
G1 X86.257 Y154.563 E17.2538
G1 X86.134 Y154.554 E17.26365
G1 X85.217 Y154.452 E17.3373
G1 X85.042 Y154.427 E17.35141
G1 X84.153 Y154.263 E17.42357
G1 X84.03 Y154.235 E17.43364
G1 X83.136 Y154.001 E17.50741
G1 X82.973 Y153.952 E17.52099
G1 X82.131 Y153.666 E17.59198
G1 X81.965 Y153.602 E17.60618
G1 X81.162 Y153.261 E17.67582
G1 X80.973 Y153.173 E17.69246
G1 X80.179 Y152.765 E17.76372
G1 X80.062 Y152.698 E17.77448
G1 X79.283 Y152.224 E17.84727
G1 X79.132 Y152.124 E17.86173
G1 X78.418 Y151.613 E17.93182
G1 X78.27 Y151.5 E17.94668
G1 X77.578 Y150.923 E18.0186
G1 X77.47 Y150.827 E18.03014
G1 X76.904 Y150.291 E18.09236
G1 X76.798 Y150.184 E18.10438
G1 X76.154 Y149.49 E18.17996
G1 X76.037 Y149.353 E18.19434
G1 X75.483 Y148.662 E18.26504
G1 X75.379 Y148.523 E18.27889
G1 X74.887 Y147.809 E18.34811
G1 X74.768 Y147.621 E18.36587
G1 X74.327 Y146.868 E18.43553
G1 X74.25 Y146.726 E18.44842
G1 X73.84 Y145.892 E18.52261
G1 X73.786 Y145.769 E18.53333
G1 X73.443 Y144.92 E18.60642
G1 X73.386 Y144.759 E18.62005
G1 X73.114 Y143.911 E18.69114
G1 X73.068 Y143.747 E18.70474
G1 X72.857 Y142.875 E18.77635
G1 X72.824 Y142.714 E18.78947
G1 X72.677 Y141.824 E18.86148
G1 X72.655 Y141.652 E18.87532
G1 X72.572 Y140.746 E18.94795
G1 X72.565 Y140.616 E18.95834
G1 X72.544 Y139.883 E19.01687
G1 X72.544 Y125.131 E20.19444
G1 X72.58 Y124.125 E20.2748
G1 X72.59 Y123.99 E20.2856
G1 X72.692 Y123.073 E20.35925
G1 X72.717 Y122.898 E20.37336
G1 X72.879 Y122.02 E20.44463
G1 X72.909 Y121.886 E20.45559
G1 X73.14 Y121.001 E20.5286
G1 X73.192 Y120.829 E20.54295
G1 X73.478 Y119.987 E20.61393
G1 X73.542 Y119.821 E20.62813
G1 X73.883 Y119.018 E20.69777
G1 X73.964 Y118.843 E20.71317
G1 X74.379 Y118.035 E20.78567
G1 X74.446 Y117.918 E20.79644
G1 X74.92 Y117.139 E20.86923
G1 X75.02 Y116.988 E20.88368
G1 X75.531 Y116.274 E20.95377
G1 X75.644 Y116.126 E20.96863
G1 X76.221 Y115.434 E21.04055
G1 X76.317 Y115.326 E21.05209
G1 X76.799 Y114.814 E21.10822
G1 X76.953 Y114.661 E21.12555
G1 X77.718 Y113.952 E21.20881
G1 X78.18 Y113.466 E21.26233
G1 X78.583 Y112.915 E21.31683
G1 X78.915 Y112.319 E21.37128
G1 X79.169 Y111.685 E21.4258
G1 X79.341 Y111.024 E21.48032
G1 X79.427 Y110.346 E21.53488
G1 X79.427 Y109.664 E21.58932
G1 X79.342 Y108.987 E21.64379
G1 X79.171 Y108.326 E21.69829
G1 X78.918 Y107.691 E21.75285
G1 X78.588 Y107.093 E21.80737
G1 X78.184 Y106.541 E21.86197
G1 X77.637 Y105.976 E21.92475
G1 X77.47 Y105.827 E21.94261
G1 X76.958 Y105.345 E21.99874
G1 X76.798 Y105.184 E22.01686
G1 X76.154 Y104.49 E22.09244
G1 X76.037 Y104.353 E22.10682
G1 X75.483 Y103.662 E22.17752
G1 X75.379 Y103.523 E22.19137
G1 X74.887 Y102.808 E22.26066
G1 X74.77 Y102.624 E22.27806
G1 X74.327 Y101.868 E22.34801
G1 X74.25 Y101.726 E22.3609
G1 X73.841 Y100.894 E22.43491
G1 X73.791 Y100.781 E22.44477
G1 X73.443 Y99.92 E22.5189
G1 X73.386 Y99.759 E22.53253
G1 X73.114 Y98.911 E22.60362
G1 X73.068 Y98.747 E22.61722
G1 X72.857 Y97.875 E22.68883
G1 X72.824 Y97.714 E22.70195
G1 X72.677 Y96.824 E22.77396
G1 X72.655 Y96.652 E22.7878
G1 X72.572 Y95.753 E22.85987
G1 X72.565 Y95.616 E22.87082
G1 X72.544 Y94.883 E22.92935
G1 X72.544 Y80.131 E24.10692
G1 X72.58 Y79.125 E24.18728
G1 X72.59 Y78.99 E24.19808
G1 X72.692 Y78.073 E24.27173
G1 X72.717 Y77.898 E24.28584
G1 X72.879 Y77.02 E24.35711
G1 X72.909 Y76.886 E24.36807
G1 X73.14 Y76.001 E24.44108
G1 X73.192 Y75.829 E24.45543
G1 X73.478 Y74.987 E24.52641
G1 X73.542 Y74.821 E24.54061
G1 X73.883 Y74.018 E24.61025
G1 X73.964 Y73.843 E24.62564
G1 X74.379 Y73.035 E24.69815
G1 X74.446 Y72.918 E24.70892
G1 X74.924 Y72.133 E24.78228
G1 X75.02 Y71.988 E24.79616
G1 X75.531 Y71.274 E24.86625
G1 X75.644 Y71.126 E24.88111
G1 X76.221 Y70.434 E24.95303
G1 X76.317 Y70.326 E24.96457
G0 F9000 X76.8 Y69.813
G1 F1125 X76.8 Y105.186 E27.78819
G0 F9000 X78.4 Y106.836
G1 F1125 X78.4 Y68.404 E30.856
G0 F9000 X80 Y67.344
G1 F1125 X80 Y152.66 E37.66629
G0 F9000 X81.6 Y153.447
G1 F1125 X81.6 Y66.551 E44.60271
G0 F9000 X83.2 Y65.98
G1 F1125 X83.2 Y154.017 E51.6302
G0 F9000 X84.8 Y154.382
G1 F1125 X84.8 Y65.619 E58.71565
G0 F9000 X86.4 Y65.427
G1 F1125 X86.4 Y154.568 E65.83127
G0 F9000 X88 Y154.599
G1 F1125 X88 Y65.4 E72.95152
G0 F9000 X89.6 Y65.407
G1 F1125 X89.6 Y154.593 E80.07073
G0 F9000 X91.2 Y154.551
G1 F1125 X91.2 Y65.45 E87.18316
G0 F9000 X92.8 Y65.542
G1 F1125 X92.8 Y154.458 E94.28082
G0 F9000 X94.4 Y154.318
G1 F1125 X94.4 Y65.679 E101.35637
G0 F9000 X96 Y65.877
G1 F1125 X96 Y154.124 E108.40062
G0 F9000 X97.6 Y153.889
G1 F1125 X97.6 Y66.111 E115.40744
G0 F9000 X99.2 Y66.414
G1 F1125 X99.2 Y153.587 E122.36597
G0 F9000 X100.8 Y153.234
G1 F1125 X100.8 Y66.766 E129.26822
G0 F9000 X102.4 Y67.166
G1 F1125 X102.4 Y152.835 E136.10669
G0 F9000 X104 Y152.368
G1 F1125 X104 Y67.632 E142.87068
G0 F9000 X105.6 Y68.147
G1 F1125 X105.6 Y151.853 E149.55246
G0 F9000 X107.2 Y151.279
G1 F1125 X107.2 Y68.722 E156.14251
G0 F9000 X108.8 Y69.368
G1 F1125 X108.8 Y150.633 E162.62944
G0 F9000 X110.4 Y149.937
G1 F1125 X110.4 Y70.064 E169.00525
G0 F9000 X112 Y70.836
G1 F1125 X112 Y149.164 E175.25773
G0 F9000 X113.6 Y148.319
G1 F1125 X113.6 Y71.682 E181.37522
G0 F9000 X115.2 Y72.588
G1 F1125 X115.2 Y147.414 E187.34816
G0 F9000 X116.8 Y146.413
G1 F1125 X116.8 Y73.587 E193.16144
G0 F9000 X118.4 Y74.675
G1 F1125 X118.4 Y145.326 E198.80111
G0 F9000 X120 Y144.159
G1 F1125 X120 Y75.84 E204.25463
G0 F9000 X121.6 Y77.04
G1 F1125 X121.6 Y142.971 E209.51753
G0 F9000 X123.2 Y142.335
G1 F1125 X123.2 Y77.664 E214.67985
G0 F9000 X124.8 Y77.801
G1 F1125 X124.8 Y142.2 E219.82045
G0 F9000 X126.4 Y142.2
G1 F1125 X126.4 Y77.801 E224.96106
G0 F9000 X128 Y77.801
G1 F1125 X128 Y142.2 E230.10167
G0 F9000 X129.6 Y142.2
G1 F1125 X129.6 Y77.801 E235.24227
G0 F9000 X131.2 Y77.801
G1 F1125 X131.2 Y142.2 E240.38288
G0 F9000 X132.8 Y142.2
G1 F1125 X132.8 Y77.801 E245.52349
G0 F9000 X134.4 Y77.801
G1 F1125 X134.4 Y142.2 E250.66409
G0 F9000 X136 Y142.2
G1 F1125 X136 Y77.801 E255.8047
G0 F9000 X137.6 Y77.801
G1 F1125 X137.6 Y142.2 E260.94531
G0 F9000 X139.2 Y142.2
G1 F1125 X139.2 Y77.801 E266.08591
G0 F9000 X140.8 Y77.801
G1 F1125 X140.8 Y142.2 E271.22652
G0 F9000 X142.4 Y142.2
G1 F1125 X142.4 Y77.801 E276.36713
G0 F9000 X144 Y77.816
G1 F1125 X144 Y142.18 E281.50494
G0 F9000 X145.6 Y142.054
G1 F1125 X145.6 Y77.943 E286.62256
G0 F9000 X147.2 Y78.261
G1 F1125 X147.2 Y141.747 E291.69028
G0 F9000 X148.8 Y141.235
G1 F1125 X148.8 Y78.774 E296.67619
G0 F9000 X150.4 Y79.48
G1 F1125 X150.4 Y140.518 E301.54851
G0 F9000 X152 Y139.552
G1 F1125 X152 Y80.442 E306.26692
G0 F9000 X153.6 Y81.749
G1 F1125 X153.6 Y138.265 E310.77827
G0 F9000 X155.2 Y136.693
G1 F1125 X155.2 Y83.309 E315.03962
G0 F9000 X156.8 Y84.908
G1 F1125 X156.8 Y135.093 E319.0456
G0 F9000 X158.4 Y133.441
G1 F1125 X158.4 Y86.543 E322.7892
G0 F9000 X160 Y88.649
G1 F1125 X160 Y131.344 E326.1973
G0 F9000 X161.6 Y127.83
G1 F1125 X161.6 Y92.182 E329.04288
G1 F2700 E324.04288
G0 F9000 X162.623 Y91.887
G0 X162.075 Y90.356
G0 X161.35 Y88.848
G0 X160.248 Y87.115
G0 X159.402 Y86.058
G0 X154.706 Y81.311
G0 X153.455 Y80.198
G0 X151.762 Y79.019
G0 X150.565 Y78.365
G0 X149.483 Y77.885
G0 X148.001 Y77.37
G0 X100.466 Y65.581
G0 X97.011 Y64.938
G0 X94.985 Y64.602
G0 X89.555 Y64.341
G0 X86.305 Y64.368
G0 X84.228 Y64.634
G0 X82.919 Y64.953
G0 X80.954 Y65.665
G0 X79.759 Y66.253
G0 X78.007 Y67.366
G0 X76.95 Y68.212
G0 X75.418 Y69.734
G0 X74.148 Y71.378
G0 X73.439 Y72.537
G0 X72.557 Y74.417
G0 X72.117 Y75.707
G0 X71.665 Y77.734
G0 X71.518 Y79.06
G0 X71.512 Y95.839
G0 X71.778 Y97.916
G0 X72.097 Y99.225
G0 X72.673 Y100.816
G0 X77.687 Y112.338
G0 X78.4 Y113.165
G1 F2700 E329.04288
G1 F1125 X78.4 Y151.599 E332.11085
G0 F9000 X76.8 Y150.186
G1 F1125 X76.8 Y114.813 E334.93447
G0 F9000 X75.2 Y116.736
G1 F1125 X75.2 Y148.263 E337.45109
G0 F9000 X73.6 Y145.308
G1 F1125 X73.6 Y119.684 E339.49651
G1 F2700 E334.49651
G0 F9000 X72.913 Y118.579
G0 X74.51 Y104.137
G0 X75.2 Y103.262
G1 F2700 E339.49651
G1 F1125 X75.2 Y71.736 E342.01305
G0 F9000 X73.6 Y74.684
G1 F1125 X73.6 Y100.308 E344.05847
G1 F2700 E339.05847
G0 F300 X73.6 Y100.308 Z0.54
G0 F9000 X72.451 Y100.306
G0 X72.04 Y99.025
G0 X71.625 Y96.985
G0 X71.48 Y94.892
G0 X71.518 Y79.06
G0 X71.665 Y77.734
G0 X72.117 Y75.707
G0 X72.557 Y74.417
G0 X73.439 Y72.537
G0 X74.148 Y71.378
G0 X75.418 Y69.734
G0 X76.95 Y68.212
G0 X78.007 Y67.366
G0 X79.759 Y66.253
G0 X80.954 Y65.665
G0 X82.919 Y64.953
G0 X84.228 Y64.634
G0 X86.305 Y64.368
G0 X87.226 Y64.361
G0 X91.314 Y64.387
G0 X91.286 Y65.451
;TIME_ELAPSED:245.219088
;LAYER:-5
;TYPE:SUPPORT
G1 F2700 E344.05847
G1 F1125 X90.897 Y65.442 E344.0973
G1 X158.635 Y133.18 E353.65586
G1 X157.964 Y133.922 E353.75568
G1 X89.445 Y65.403 E363.42445
G1 X89.146 Y65.4 E363.45429
G1 X88.027 Y65.4 E363.56594
G1 X157.259 Y134.631 E373.33526
G1 X156.699 Y135.191 E373.41428
G1 X156.547 Y135.333 E373.43503
G1 X86.631 Y65.418 E383.30086
G1 X86.527 Y65.421 E383.31125
G1 X86.385 Y65.427 E383.32543
G1 X85.491 Y65.511 E383.41502
